X:543
T:Hen's March Through The Midden, The 
C:Joe Buchanan's Scottish Tome - Page 069.0
I:069 0
Z:Carl Allison
R:Reel
L:1/16
M:2/4
K:D
((3ABc)|"D"d2A2 "Adim"d>ef>g| "D"a>gf>e "A7"e2>A2|"D" d2>e2 "Adim"f2f2|"G" {ef}g2f>g   "A7"a4 |
"D"{fg}a>gf<a "A7"g>fe<g | "D"f>ed<f "A7"A2A2 | "D"d>f"A7"e>g "D7"f<a"D"g>f | "A7"[eA]4 "D"d4 :|
"A"[AA]2{d}[Ac]2 "Edim"[AA]2{d}[Ac]2 | "A"A2A>c "C#dim"[ecA]2f2  | "D"d2{g}f2 "A"d2{g}f2 | "D"d2d>e "F#dim"[Adf]2a2 |
"G"{c}d2d>f "Bdim"[Bdg]2b2 | "D"{c}d2d>e "F#dim"[Adf]2a2 | "G"{c}d2df "Bdim"[Bdg]2b2 | "D"{c}d2d>e "F#dim"[Adf]2a2 |
"D"a>gf<a "A7"g>fe<g | "D"f>ed<f "A7"A2>A2 | "D"d>f"A7"e>g "D7"f<a"G"g>f |  "A7"[Ae]4 z2  "D"d2 :|
agfa gfeg| fedf e2 A2 | df eg fa gf|e2 c2 d4:|

